match-match-game/assets/images/mark-question.svg

<svg width="20" height="20" viewBox="0 0 20 20" fill="none" xmlns="http://www.w3.org/2000/svg">
<path d="M20 10C20 15.5228 15.5228 20 10 20C4.47715 20 0 15.5228 0 10C0 4.47715 4.47715 0 10 0C15.5228 0 20 4.47715 20 10Z" fill="white"/>
<path d="M8.88379 12.3965C8.89551 11.6992 8.97461 11.1484 9.12109 10.7441C9.26758 10.3398 9.56641 9.8916 10.0176 9.39941L11.1689 8.21289C11.6611 7.65625 11.9072 7.05859 11.9072 6.41992C11.9072 5.80469 11.7461 5.32422 11.4238 4.97852C11.1016 4.62695 10.6328 4.45117 10.0176 4.45117C9.41992 4.45117 8.93945 4.60938 8.57617 4.92578C8.21289 5.24219 8.03125 5.66699 8.03125 6.2002H6.40527C6.41699 5.25098 6.75391 4.48633 7.41602 3.90625C8.08398 3.32031 8.95117 3.02734 10.0176 3.02734C11.125 3.02734 11.9863 3.32617 12.6016 3.92383C13.2227 4.51562 13.5332 5.33008 13.5332 6.36719C13.5332 7.39258 13.0586 8.40332 12.1094 9.39941L11.1514 10.3486C10.7236 10.8232 10.5098 11.5059 10.5098 12.3965H8.88379ZM8.81348 15.1826C8.81348 14.9189 8.89258 14.6992 9.05078 14.5234C9.21484 14.3418 9.45508 14.251 9.77148 14.251C10.0879 14.251 10.3281 14.3418 10.4922 14.5234C10.6562 14.6992 10.7383 14.9189 10.7383 15.1826C10.7383 15.4463 10.6562 15.666 10.4922 15.8418C10.3281 16.0117 10.0879 16.0967 9.77148 16.0967C9.45508 16.0967 9.21484 16.0117 9.05078 15.8418C8.89258 15.666 8.81348 15.4463 8.81348 15.1826Z" fill="#2196F3"/>
</svg>

<svg width="20" height="20" fill="none" xmlns="http://www.w3.org/2000/svg"><path d="M20 10c0 5.523-4.477 10-10 10S0 15.523 0 10 4.477 0 10 0s10 4.477 10 10z" fill="#fff"/><path d="M8.884 12.396c.012-.697.09-1.248.237-1.652.147-.404.445-.852.897-1.345l1.15-1.186c.493-.557.74-1.154.74-1.793 0-.615-.162-1.096-.484-1.441-.322-.352-.791-.528-1.406-.528-.598 0-1.079.158-1.442.475-.363.316-.545.741-.545 1.274H6.405c.012-.949.349-1.714 1.011-2.294.668-.586 1.535-.879 2.602-.879 1.107 0 1.968.3 2.584.897.62.592.931 1.406.931 2.443 0 1.026-.474 2.036-1.424 3.032l-.958.95c-.427.474-.641 1.157-.641 2.047H8.884zm-.07 2.787c0-.264.079-.484.237-.66.164-.181.404-.272.72-.272.317 0 .557.09.721.272a.929.929 0 01.246.66.929.929 0 01-.246.659c-.164.17-.404.255-.72.255-.317 0-.557-.085-.721-.255a.949.949 0 01-.238-.66z" fill="#2196F3"/></svg>
